X: 36586
T: Shake A Leg
R: reel
M: 4/4
K: Gmajor
GE|:D ~G3 [G3G,3] A|B ~d3 d2 (3Bcd|eg{a}ge dBGB|AB{d}BA GE (3EEE|
DG{A}GF ~G3 A|BddB [d2D2] (3Bcd|eg{a}ge dBGB|1 AGFA G2 GE:|2 AGFA GA (3Bcd||
|:e~B3 efge|f~B3 fgaf|g~B3 b~B3|BAGB ABGE|
DG{A}GF [G3G,3] A|BddB [d2D2] (3Bcd|eg{a}ge dBGB|1 AGFA G2 (3Bcd:|2 AGFA G2 GE||

